static/img/kroki/fe474517ea1dc45ecc211b6b1840137d.svg

<?xml version="1.0" encoding="us-ascii" standalone="no"?><svg xmlns="http://www.w3.org/2000/svg" xmlns:xlink="http://www.w3.org/1999/xlink" contentStyleType="text/css" height="374px" preserveAspectRatio="none" style="width:391px;height:374px;" version="1.1" viewBox="0 0 391 374" width="391px" zoomAndPan="magnify"><defs/><g><!--class digitalocean_domain--><g id="elem_digitalocean_domain"><rect codeLine="23" fill="#3D176E" height="39.7891" id="digitalocean_domain" rx="2.5" ry="2.5" style="stroke:#000D19;stroke-width:0.5;" width="215" x="113" y="328.58"/><ellipse cx="128" cy="348.4745" fill="#ADD1B2" rx="11" ry="11" style="stroke:#181818;stroke-width:1.0;"/><path d="M130.9688,354.1152 Q130.3906,354.412 129.75,354.5527 Q129.1094,354.7089 128.4063,354.7089 Q125.9063,354.7089 124.5781,353.0683 Q123.2656,351.412 123.2656,348.287 Q123.2656,345.162 124.5781,343.5058 Q125.9063,341.8495 128.4063,341.8495 Q129.1094,341.8495 129.75,342.0058 Q130.4063,342.162 130.9688,342.4589 L130.9688,345.1777 Q130.3438,344.5995 129.75,344.3339 Q129.1563,344.0527 128.5313,344.0527 Q127.1875,344.0527 126.5,345.1308 Q125.8125,346.1933 125.8125,348.287 Q125.8125,350.3808 126.5,351.4589 Q127.1875,352.5214 128.5313,352.5214 Q129.1563,352.5214 129.75,352.2558 Q130.3438,351.9745 130.9688,351.3964 L130.9688,354.1152 Z " fill="#000000"/><text fill="#D9B8FF" font-family="Helvetica" font-size="17" lengthAdjust="spacing" textLength="173" x="147" y="354.3598">digitalocean_domain</text></g><!--class digitalocean_resource--><g id="elem_digitalocean_resource"><rect codeLine="26" fill="#3D176E" height="39.7891" id="digitalocean_resource" rx="2.5" ry="2.5" style="stroke:#000D19;stroke-width:0.5;" width="223" x="7" y="167.79"/><ellipse cx="22" cy="187.6845" fill="#ADD1B2" rx="11" ry="11" style="stroke:#181818;stroke-width:1.0;"/><path d="M24.9688,193.3252 Q24.3906,193.622 23.75,193.7627 Q23.1094,193.9189 22.4063,193.9189 Q19.9063,193.9189 18.5781,192.2783 Q17.2656,190.622 17.2656,187.497 Q17.2656,184.372 18.5781,182.7158 Q19.9063,181.0595 22.4063,181.0595 Q23.1094,181.0595 23.75,181.2158 Q24.4063,181.372 24.9688,181.6689 L24.9688,184.3877 Q24.3438,183.8095 23.75,183.5439 Q23.1563,183.2627 22.5313,183.2627 Q21.1875,183.2627 20.5,184.3408 Q19.8125,185.4033 19.8125,187.497 Q19.8125,189.5908 20.5,190.6689 Q21.1875,191.7314 22.5313,191.7314 Q23.1563,191.7314 23.75,191.4658 Q24.3438,191.1845 24.9688,190.6064 L24.9688,193.3252 Z " fill="#000000"/><text fill="#D9B8FF" font-family="Helvetica" font-size="17" lengthAdjust="spacing" textLength="181" x="41" y="193.5698">digitalocean_resource</text></g><!--class dns_zone--><g id="elem_dns_zone"><rect codeLine="29" fill="#3D176E" height="39.7891" id="dns_zone" rx="2.5" ry="2.5" style="stroke:#000D19;stroke-width:0.5;" width="119" x="265" y="167.79"/><ellipse cx="280" cy="187.6845" fill="#ADD1B2" rx="11" ry="11" style="stroke:#181818;stroke-width:1.0;"/><path d="M282.9688,193.3252 Q282.3906,193.622 281.75,193.7627 Q281.1094,193.9189 280.4063,193.9189 Q277.9063,193.9189 276.5781,192.2783 Q275.2656,190.622 275.2656,187.497 Q275.2656,184.372 276.5781,182.7158 Q277.9063,181.0595 280.4063,181.0595 Q281.1094,181.0595 281.75,181.2158 Q282.4063,181.372 282.9688,181.6689 L282.9688,184.3877 Q282.3438,183.8095 281.75,183.5439 Q281.1563,183.2627 280.5313,183.2627 Q279.1875,183.2627 278.5,184.3408 Q277.8125,185.4033 277.8125,187.497 Q277.8125,189.5908 278.5,190.6689 Q279.1875,191.7314 280.5313,191.7314 Q281.1563,191.7314 281.75,191.4658 Q282.3438,191.1845 282.9688,190.6064 L282.9688,193.3252 Z " fill="#000000"/><text fill="#D9B8FF" font-family="Helvetica" font-size="17" lengthAdjust="spacing" textLength="77" x="299" y="193.5698">dns_zone</text></g><!--class resource--><g id="elem_resource"><rect codeLine="32" fill="#3D176E" height="39.7891" id="resource" rx="2.5" ry="2.5" style="stroke:#000D19;stroke-width:0.5;" width="113" x="164" y="7"/><ellipse cx="179" cy="26.8945" fill="#ADD1B2" rx="11" ry="11" style="stroke:#181818;stroke-width:1.0;"/><path d="M181.9688,32.5352 Q181.3906,32.832 180.75,32.9727 Q180.1094,33.1289 179.4063,33.1289 Q176.9063,33.1289 175.5781,31.4883 Q174.2656,29.832 174.2656,26.707 Q174.2656,23.582 175.5781,21.9258 Q176.9063,20.2695 179.4063,20.2695 Q180.1094,20.2695 180.75,20.4258 Q181.4063,20.582 181.9688,20.8789 L181.9688,23.5977 Q181.3438,23.0195 180.75,22.7539 Q180.1563,22.4727 179.5313,22.4727 Q178.1875,22.4727 177.5,23.5508 Q176.8125,24.6133 176.8125,26.707 Q176.8125,28.8008 177.5,29.8789 Q178.1875,30.9414 179.5313,30.9414 Q180.1563,30.9414 180.75,30.6758 Q181.3438,30.3945 181.9688,29.8164 L181.9688,32.5352 Z " fill="#000000"/><text fill="#D9B8FF" font-family="Helvetica" font-size="17" lengthAdjust="spacing" textLength="71" x="198" y="32.7798">resource</text></g><!--reverse link digitalocean_resource to digitalocean_domain--><g id="link_digitalocean_resource_digitalocean_domain"><path codeLine="35" d="M140.5301,222.9835 C160.1401,253.5035 188.52,297.69 208.15,328.25 " fill="none" id="digitalocean_resource-backto-digitalocean_domain" style="stroke:#FFAF37;stroke-width:2.0;"/><polygon fill="none" points="130.8,207.84,135.4823,226.2268,145.5779,219.7401,130.8,207.84" style="stroke:#FFAF37;stroke-width:2.0;"/></g><!--reverse link dns_zone to digitalocean_domain--><g id="link_dns_zone_digitalocean_domain"><path codeLine="36" d="M302.0976,222.8976 C282.1076,253.4176 253.11,297.69 233.09,328.25 " fill="none" id="dns_zone-backto-digitalocean_domain" style="stroke:#FFAF37;stroke-width:2.0;"/><polygon fill="none" points="311.96,207.84,297.0783,219.6101,307.1168,226.1851,311.96,207.84" style="stroke:#FFAF37;stroke-width:2.0;"/></g><!--reverse link resource to digitalocean_resource--><g id="link_resource_digitalocean_resource"><path codeLine="37" d="M198.4699,62.1935 C178.8599,92.7135 150.48,136.9 130.85,167.46 " fill="none" id="resource-backto-digitalocean_resource" style="stroke:#FFAF37;stroke-width:2.0;"/><polygon fill="none" points="208.2,47.05,193.4221,58.9501,203.5177,65.4368,208.2,47.05" style="stroke:#FFAF37;stroke-width:2.0;"/></g><!--reverse link resource to dns_zone--><g id="link_resource_dns_zone"><path codeLine="38" d="M242.9024,62.1076 C262.8924,92.6276 291.89,136.9 311.91,167.46 " fill="none" id="resource-backto-dns_zone" style="stroke:#FFAF37;stroke-width:2.0;"/><polygon fill="none" points="233.04,47.05,237.8832,65.3951,247.9217,58.8201,233.04,47.05" style="stroke:#FFAF37;stroke-width:2.0;"/></g><!--SRC=[XP1BRy8m48Jl-HMME2E5eZP4weKYLUq5LQLtjDZhO95uqTefWhR_lQKyv3ovpdoQcTsrKIYmsFgzAB1O8Rl8ROpT0aCXfioqcr5EB0PQWnudTVEPhBy9pA50yOBv9teZeKvyh8tSM7HEt0NM4yXDnbHQTOht3DRzMMXzGCroS6xgFPjLwJ4OezBLHEiwMGyTZDKeUS06HgoGpqWSnsgKrf6RLRrtNuc5EQ0OXK-RayV6p4R5FzMxyaW48nk7NlpEZM-WbB6Pk0-qzzCcjiWLVR46HRiZhI5tOOtpo4X-lyLPuofC9qedhV1h5np9u-k4Cfdna9D4i4j51HWhlgBefyrcT5Ion0fWtV90jg9LkVQ8n-_XSDZM7bqJkv6-b8lNWCwnqIy0]--></g></svg>

<svg xmlns="http://www.w3.org/2000/svg" width="391" height="374" viewBox="0 0 391 374"><rect width="215" height="39.789" x="113" y="328.58" fill="#3D176E" rx="2.5" ry="2.5" style="stroke:#000d19;stroke-width:.5"/><circle cx="128" cy="348.474" r="11" fill="#ADD1B2" style="stroke:#181818;stroke-width:1"/><path d="M130.969 354.115q-.578.297-1.219.438-.64.156-1.344.156-2.5 0-3.828-1.64-1.312-1.657-1.312-4.782t1.312-4.781q1.328-1.656 3.828-1.656.703 0 1.344.156.656.156 1.219.453v2.719q-.625-.579-1.219-.844-.594-.281-1.219-.281-1.344 0-2.031 1.078-.687 1.062-.687 3.156t.687 3.172q.688 1.062 2.031 1.062.625 0 1.219-.265.594-.281 1.219-.86z"/><text x="147" y="354.36" fill="#D9B8FF" font-family="Helvetica" font-size="17" textLength="173">digitalocean_domain</text><rect width="223" height="39.789" x="7" y="167.79" fill="#3D176E" rx="2.5" ry="2.5" style="stroke:#000d19;stroke-width:.5"/><circle cx="22" cy="187.685" r="11" fill="#ADD1B2" style="stroke:#181818;stroke-width:1"/><path d="M24.969 193.325q-.578.297-1.219.438-.64.156-1.344.156-2.5 0-3.828-1.64-1.312-1.657-1.312-4.782t1.312-4.781q1.328-1.656 3.828-1.656.703 0 1.344.156.656.156 1.219.453v2.719q-.625-.578-1.219-.844-.594-.281-1.219-.281-1.343 0-2.031 1.078-.687 1.062-.687 3.156t.687 3.172q.688 1.062 2.031 1.062.625 0 1.219-.265.594-.281 1.219-.86z"/><text x="41" y="193.57" fill="#D9B8FF" font-family="Helvetica" font-size="17" textLength="181">digitalocean_resource</text><rect width="119" height="39.789" x="265" y="167.79" fill="#3D176E" rx="2.5" ry="2.5" style="stroke:#000d19;stroke-width:.5"/><circle cx="280" cy="187.685" r="11" fill="#ADD1B2" style="stroke:#181818;stroke-width:1"/><path d="M282.969 193.325q-.578.297-1.219.438-.64.156-1.344.156-2.5 0-3.828-1.64-1.312-1.657-1.312-4.782t1.312-4.781q1.328-1.656 3.828-1.656.703 0 1.344.156.656.156 1.219.453v2.719q-.625-.578-1.219-.844-.594-.281-1.219-.281-1.344 0-2.031 1.078-.687 1.062-.687 3.156t.687 3.172q.688 1.062 2.031 1.062.625 0 1.219-.265.594-.281 1.219-.86z"/><text x="299" y="193.57" fill="#D9B8FF" font-family="Helvetica" font-size="17" textLength="77">dns_zone</text><rect width="113" height="39.789" x="164" y="7" fill="#3D176E" rx="2.5" ry="2.5" style="stroke:#000d19;stroke-width:.5"/><circle cx="179" cy="26.895" r="11" fill="#ADD1B2" style="stroke:#181818;stroke-width:1"/><path d="M181.969 32.535q-.578.297-1.219.438-.64.156-1.344.156-2.5 0-3.828-1.64-1.312-1.657-1.312-4.782t1.312-4.781q1.328-1.656 3.828-1.656.703 0 1.344.156.656.156 1.219.453v2.719q-.625-.578-1.219-.844-.594-.281-1.219-.281-1.344 0-2.031 1.078-.687 1.062-.687 3.156t.687 3.172q.688 1.062 2.031 1.062.625 0 1.219-.265.594-.281 1.219-.86z"/><text x="198" y="32.78" fill="#D9B8FF" font-family="Helvetica" font-size="17" textLength="71">resource</text><path fill="none" d="M140.53 222.984c19.61 30.52 47.99 74.706 67.62 105.266M130.8 207.84l4.682 18.387 10.096-6.487zm171.298 15.058c-19.99 30.52-48.988 74.792-69.008 105.352m78.87-120.41-14.882 11.77 10.039 6.575zM198.47 62.194c-19.61 30.52-47.99 74.706-67.62 105.266M208.2 47.05l-14.778 11.9 10.096 6.487zm34.702 15.058c19.99 30.52 48.988 74.792 69.008 105.352M233.04 47.05l4.843 18.345 10.039-6.575z" style="stroke:#ffaf37;stroke-width:2"/></svg>
